X: 211
M: C|
L: 1/8
K: Edor
V: 1
E2EF BFEF | E2EF dFDF |\
E2EF EFGA | (B/c/d) AG FDD :|
|: F |\
Ee-ed eEEF | Ee-ec dDDF |\
Eeed BcdB | (e/f/g) Tfe dDD :|
V: 2 clef=bass middle=d
z |\
e2e2 e2e2 | e2e2 d2d2 |\
e2e2 e2e2 | d2d2 d2d :|\
|: z |
e2e2 e2e2 | e2e2 d2d2 |\
e2e2 e2e2 | d2d2 d2d :|

